!!!OTL: Five and A'the Lands about it
!!!id: HA029
**kern
*clefF4
*k[f#c#]
*D:
*M4/4
{4B
8.d
16e
4d
4dd
=2
4.a
8f#
4a
4d}
=3yy
{4dd
4d
8d
8e
8f#
8g
=4
4a
8.g
16f#
2e}
=5yy
{4g
8b
8cc#
4b
4dd
=6
8d
8e
8f#
8g
4a
4A}
=7yy
{4B
4d
4.b
8a
=8
8f#
8g
8a
8b
2a}
=9yy
{8dd
8ee
8ff#
8ee
4dd
4a
=10
4.b
8a
4f#
4a}
=11yy
{4b
8dd
8cc#
4dd
4a
=12
8g
8f#
8e
8d
2a}
=13yy
{8b
8a
8b
8cc#
4.dd
8ee
=14
4ff#
8ee
8dd
4ee
4e}
=15yy
{4f#
4a
4.b
8a
=16
4dd
8d
8e
2d}
==
*-
!!!minrhy: 16
!!!meter: 4/4 
!!!cut: Five and A'the Lands about it
!!!key: HA029  16  D 4/4 
!!!bem: Vorschlge
!!!fog: a--b--c--d--e--f--g--h--
!! Haydn: Volksliedbearbeitungen, Bd1
